X:1
T:Jesus Is Victor
T:Jesus Is Victor
T:Samuel William Beazley
T:Carrie Elizabeth Ellis Breck, 1915
T:Public Domain Courtesy of the Cyber Hymnal™
T:Public Domain Courtesy of the Cyber Hymnal™
C:Samuel William Beazley
Z:Public Domain
Z:Courtesy of the Cyber Hymnal™
%%score ( 1 2 ) 3
L:1/8
Q:1/4=105
M:4/4
K:Eb
V:1 treble 
V:2 treble 
V:3 bass 
V:1
 [EB]2 [EB]2 [EB]4 | [EG]>^F [EG]>F [EG]4 | [EB]2 [EB]2 [EB]4 | [DA]>G [DA]>G [DA]4 | %4
w: 1.~Now is life,|death shall be no more!|Now is life,|sor- row- ing is o’er!|
w: 2.~Now is life,|dark- ness flees a- way!|Now is life,|life and end- less day!|
w: 3.~Now is life!|let the na- tions know!|Now is life!|Gos- pel tid- ings show!|
 [B,DF]4 B4 [B,F]2 | [B,EG]4 [EGB]4 | [EGc]2 [GBe]>[GBe] [F=Ad]2 [EAc]2 | [DFB]6 z2 | %8
w: Praise Him, praise|* Him!|Je- sus is con- quer-|or!|
w: Love Him, love|* Him,|Je- sus, the truth, the|way.|
w: Serve Him, serve|* Him;|Un- to His loved ones|go!|
 [EB]2 [EB]2 [EB]4 | [EG]>^F [EG]>F [EG]4 | [EB]2 [EB]2 [EB]4 | [DA]>G [DA]>G [DA]4 | %12
w: Christ who lives|will His loved ones keep|Thro’ His power,|death is on- ly sleep;|
w: End- less life|all may now re- ceive;|Ev- ery heart|who will now be- lieve;|
w: Tell them how~Christ|came for us to die,|Rose from death,|reign- ing now on high;|
 [DA]2 [Ad]>^c [Ad]4 | [EG]2 [Ge]>d [Ge]4 | [Fd]4 [EFc]4 | !fermata![DB]6 z2 || %16
w: Praise ye the Lord,|praise ye the Lord,|Ev- er-|more!|
w: Praise ye the Lord,|praise ye the Lord,|Own His|sway!|
w: Praise ye the Lord!|Praise ye the Lord!|Praise the|Lord!|
[M:6/8]"^Refrain"[Q:1/4=90] B,EG B[EGc]>G | (z [EG][EG]) (z [B,E][B,E]) | %18
w: ||
w: Car- ry the tid- ings of||
w: ||
 z [A,CE][A,CE] (z [A,_C][A,C]) | z [G,B,E][G,B,E] z ([B,E][B,E]) | %20
w: ||
w: |* * glo- *|
w: ||
 (A [B,DG])[B,DF] F [B,DG][B,DA] | (z [B,E][B,E]) (z [=EB][EB]) | z [FB][FB] (z [E=A][EA]) | %23
w: |||
w: ry, * love and joy; Christ|||
w: |||
 z B3 x4 | B,EG B[EGc]>G | (z [EG][EG]) (z [B,E][B,E]) | z [FG][FG] (z [DF][DF]) | %27
w: ||||
w: |* hath shown mer- cy to|||
w: ||||
 z [Gc][Gc] z [Gc][Gc] | [CF][C=EG][DFA] B[CGc][CG] | (z [CF][CF]) (z [A,E][A,E]) | %30
w: |||
w: |* thou- sands, Life He brings;||
w: |||
 z [B,E][B,E] (z [A,D][A,D]) | z [G,B,][G,B,] [G,B,E]3 |] %32
w: ||
w: ||
w: ||
V:2
 x8 | x8 | x8 | x8 | x4 [B,-E]2 x4 | x8 | x8 | x8 | x8 | x8 | x8 | x8 | x8 | x8 | x8 | x8 || %16
[M:6/8] x6 | B3 G3 | A3 E3 | (G3- G3) | x6 | B3 c3 | d3 c3 | ([DB-]3 FG AGF) | x6 | B3 G3 | d3 G3 | %27
 e3- e3 | x6 | B3 A3 | G3 F3 | E3- x3 |] %32
V:3
 [E,G,]2 [B,,G,]2 ([E,G,]2 [B,,G,]2) | [E,B,]2 [B,,B,]2 ([E,B,]2 [B,,B,]2) | %2
 [E,G,]2 [B,,G,]2 ([E,G,]2 [B,,G,]2) | [F,B,]2 [B,,B,]2 ([F,B,]2 [B,,B,]2) | %4
 ([D,,D,]2 [B,,,B,,]2) ([C,,C,]2 [D,,D,]2) x2 | ([E,,E,]2 [F,,F,]2) ([E,,E,]2 [F,,F,]2) | %6
 [C,,C,]4 [F,,F,]4 | ([B,,B,]2 !>!A,2 !>!G,2 !>!F,2) | [E,G,]2 [B,,G,]2 ([E,G,]2 [B,,G,]2) | %9
 [E,B,]2 [B,,B,]2 ([E,B,]2 [B,,B,]2) | [E,G,]2 [B,,G,]2 ([E,G,]2 [B,,G,]2) | %11
 [F,B,]2 [B,,B,]2 ([F,B,]2 [B,,B,]2) | [F,B,]2 [B,,B,]2 ([F,B,]2 [B,,B,]2) | %13
 [E,B,]2 [B,,B,]2 ([E,B,]2 [C,C]2) | ([F,,F,]2 [F,B,]2) ([F,,F,]2 [F,=A,]2) | %15
 ([B,,B,]2 F,2 !fermata!B,,2) z2 ||[M:6/8] B,,E,G, B,D>G, | B,3 ([E,,E,][D,,D,][_D,,_D,]) | %18
 [C,,C,]3 [A,,,A,,]3 | [E,,E,]3 [A,,,B,,]3 | [F,,F,]3 [B,,,B,,]3 | [G,,G,]3 [_G,,_G,]3 | %22
 [F,,F,]3 [F,,F,]3 | (B,,A,B,CB,A,) x2 | B,,E,G, B,C>G, | B,3 [E,,E,]3 | [_B,,,=B,,]3 [=B,,,B,,]3 | %27
 ([C,,C,]CD E3) | A,G,F, =E,3 | F,3 [C,,C,]2 [_C,,_C,] | [B,,,B,,]3 [B,,,B,,]3 | %31
 ([E,,E,]B,,G,, E,,3) |] %32

